!!!OTL: Mir bluehet kein Fruehling, mit lachet keine Sonne, mir duftet kein Bluemchen, fuer mich ist alles dahin.
!!!ARE: Europa, Mitteleuropa, Deutschland, Untermainfranken, Spessart
!!!SCT: D0173
!!!YEM: Copyright 1995, estate of Helmut Schaffrath.
**kern
*ICvox
*Ivox
*M4/4
*k[f#c#]
*D:
{4a
=1
2f#
8g
8f#
8e
8d
=2
8c#
8e
4g
4r}
{4a
=3
4.g
8g
4.a
8e
=4
8g
8f#
4f#
4r}
{4d
=5
8d
8b
2b
4a
=6
8a
8g#
2g}
{4g
=7
4.f#
8a
8a
8g
8e
8c#
=8
2d
4r}
==
!!!AGN: Liebes - Lied
!! Inzipit = entfernte Variante zum Lied ?
!!!ONB: ESAC (Essen Associative Code) Database: DVA
!!!AMT: simple quadruple
!!!AIN: vox
!!!EED: Helmut Schaffrath
!!!EEV: 1.0
*-
